assets/icon-delivery.svg

<?xml version="1.0" encoding="UTF-8"?>
<!DOCTYPE svg PUBLIC "-//W3C//DTD SVG 1.1//EN" "http://www.w3.org/Graphics/SVG/1.1/DTD/svg11.dtd">
<!-- Creator: CorelDRAW 2017 -->
<svg xmlns="http://www.w3.org/2000/svg" xml:space="preserve" width="100%" height="100%" version="1.1" style="shape-rendering:geometricPrecision; text-rendering:geometricPrecision; image-rendering:optimizeQuality; fill-rule:evenodd; clip-rule:evenodd"
viewBox="0 0 1.56858 1.35934"
 xmlns:xlink="http://www.w3.org/1999/xlink">
 <defs>
  <style type="text/css">
   <![CDATA[
    .fil0 {fill:#FEFEFE}
   ]]>
  </style>
 </defs>
 <g id="Camada_x0020_1">
  <metadata id="CorelCorpID_0Corel-Layer"/>
  <path class="fil0" d="M1.20258 1.22862c0,-0.05806 0.05425,-0.09246 0.11081,-0.0716 0.00696,0.00257 0.01847,0.00968 0.024,0.01522 0.05257,0.05257 0.00562,0.16281 -0.08877,0.12799 -0.00696,-0.00257 -0.01847,-0.00969 -0.024,-0.01522 -0.00554,-0.00553 -0.01265,-0.01704 -0.01522,-0.024 -0.0019,-0.00517 -0.00682,-0.02646 -0.00682,-0.03239zm0.08085 0.13072l-0.00979 0c-0.06807,-0.0029 -0.1168,-0.06511 -0.12008,-0.10457l-0.39868 0c-0.00204,0.02454 -0.02708,0.06046 -0.04237,0.072 -0.02912,0.02201 -0.0571,0.03151 -0.08265,0.03257l-0.00979 0c-0.06807,-0.0029 -0.1168,-0.06511 -0.12008,-0.10457 -0.03486,0 -0.06972,0 -0.10457,0 -0.02786,0 -0.0817,0.0069 -0.0817,-0.01961l0 -0.50979c0,-0.02351 0.05228,-0.03192 0.05228,0.00654l0 0.47057 0.13399 0c0.00191,-0.02294 0.02585,-0.05913 0.04048,-0.07063 0.04452,-0.03499 0.09072,-0.04625 0.1426,-0.02095 0.01312,0.00639 0.02222,0.01326 0.03316,0.0224 0.0071,0.00593 0.01885,0.02232 0.02428,0.03127 0.00646,0.01065 0.01319,0.02375 0.01437,0.03791l0.29084 0 0 -0.62743 -0.28757 0c-0.02765,0 -0.02615,-0.02179 -0.02615,-0.03268 0,-0.00786 0.01174,-0.0196 0.01961,-0.0196l0.32679 0c0.01059,0 0.0196,0.0142 0.0196,0.02614l0 0.13071 0.18954 0c0.01082,0 0.13335,0.12845 0.14297,0.13807 0.00993,0.00993 0.13807,0.132 0.13807,0.14297l0 0.26796c0,0.03335 -0.03577,0.02615 -0.06863,0.02615 -0.0305,-0.00001 -0.061,0 -0.0915,0 -0.00204,0.02454 -0.02708,0.06046 -0.04237,0.072 -0.02912,0.02201 -0.0571,0.03151 -0.08265,0.03257zm-0.73443 -0.13072c0,-0.10296 0.15686,-0.10296 0.15686,0 0,0.05807 -0.05426,0.09247 -0.11081,0.07161 -0.03005,-0.01109 -0.04605,-0.04347 -0.04605,-0.07161zm0.60456 -0.02614l-0.05556 0 0 -0.20914 0.41829 0 0 0.20914 -0.10784 0c-0.00118,-0.01416 -0.00791,-0.02726 -0.01437,-0.03791 -0.02104,-0.03467 -0.06387,-0.06666 -0.1,-0.06666 -0.04403,0 -0.05918,0.00183 -0.10004,0.03394 -0.01463,0.0115 -0.03857,0.04769 -0.04048,0.07063zm-0.05556 -0.47057l0.16666 0c0.0115,0 0.14102,0.13611 0.15931,0.15441 0.01427,0.01426 0.04345,0.04031 0.05311,0.05473l-0.37908 0 0 -0.20914zm-0.75814 -0.15686c-0.10235,0 -0.19462,-0.05974 -0.2375,-0.15137 -0.05834,-0.12463 -0.00854,-0.28391 0.12744,-0.34756 0.06626,-0.03101 0.1527,-0.03022 0.2179,-0.00105 0.0763,0.03413 0.12858,0.09846 0.1463,0.18049 0.03059,0.14164 -0.05127,0.28093 -0.19607,0.3122 -0.01401,0.00303 -0.04344,0.00729 -0.05807,0.00729zm-0.31371 -0.27776c0,0.08618 0.01263,0.12809 0.05812,0.19677 0.00686,0.01035 0.00853,0.01102 0.01603,0.01992 0.05269,0.0625 0.13818,0.11336 0.22322,0.11336 0.08539,0 0.12741,-0.01217 0.19677,-0.05812 0.01036,-0.00686 0.01103,-0.00853 0.01992,-0.01603 0.02162,-0.01822 0.01929,-0.01458 0.03775,-0.03742 0.10023,-0.124 0.10298,-0.28208 0.00147,-0.4025 -0.01823,-0.02162 -0.01458,-0.01928 -0.03742,-0.03774 -0.00842,-0.00681 -0.00983,-0.00955 -0.01973,-0.01621 -0.01568,-0.01054 -0.02893,-0.01936 -0.04683,-0.02833 -0.14032,-0.07034 -0.31302,-0.01411 -0.3899,0.10022 -0.0116,0.01726 -0.0179,0.02755 -0.02782,0.04734 -0.01549,0.0309 -0.03158,0.0743 -0.03158,0.11874zm0.28757 -0.12092l0 0.16993c0,0.01059 0.0142,0.01961 0.02614,0.01961l0.10457 0c0.03808,0 0.02884,-0.05229 0.00654,-0.05229l-0.08497 0 0 -0.13071c0,-0.03846 -0.05228,-0.03005 -0.05228,-0.00654zm-0.31372 0.73741c0.00019,0.01142 0.00257,0.02727 0.02615,0.02727l0.20914 0c0.03707,0 0.03094,-0.05228 0.00654,-0.05228l-0.22222 0c-0.00787,0 -0.01961,0.01174 -0.01961,0.0196l0 0.00541zm0.10458 0.09917c0,0.01232 0.00228,0.03267 0.0196,0.03267l0.11765 0c0.02755,0 0.02431,-0.05228 0,-0.05228l-0.11765 0c-0.00787,0 -0.0196,0.01174 -0.0196,0.01961zm0.05228 0.10457c0,0.03969 0.01959,0.03268 0.07843,0.03268 0.03808,0 0.02884,-0.05229 0.00654,-0.05229 -0.03119,0 -0.08497,-0.00803 -0.08497,0.01961z"/>
 </g>
</svg>

<svg xmlns="http://www.w3.org/2000/svg" width="100%" height="100%" fill-rule="evenodd" clip-rule="evenodd" image-rendering="optimizeQuality" shape-rendering="geometricPrecision" text-rendering="geometricPrecision" version="1.1" viewBox="0 0 1.569 1.359" xml:space="preserve">
  <path fill="#fefefe" d="M1.203 1.229c0-.058.054-.093.11-.072.007.003.019.01.024.015.053.053.006.163-.088.128a.083.083 0 0 1-.024-.015.083.083 0 0 1-.016-.024.182.182 0 0 1-.006-.032zm.08.13h-.01c-.067-.003-.116-.065-.12-.104H.756a.132.132 0 0 1-.042.072.147.147 0 0 1-.083.032H.62C.552 1.356.503 1.294.5 1.255H.395c-.027 0-.081.007-.081-.02v-.51c0-.023.052-.032.052.007v.47H.5a.135.135 0 0 1 .04-.07c.045-.035.091-.046.143-.021a.153.153 0 0 1 .033.022.165.165 0 0 1 .025.032.09.09 0 0 1 .014.037h.29V.575H.759C.731.575.732.553.732.542c0-.007.012-.02.02-.02h.326c.011 0 .02.015.02.027v.13h.19c.01 0 .133.13.143.139.01.01.138.132.138.143v.268c0 .033-.036.026-.069.026h-.092a.132.132 0 0 1-.042.072.147.147 0 0 1-.083.032zM.55 1.23c0-.103.157-.103.157 0 0 .058-.054.092-.11.071-.031-.01-.047-.043-.047-.071zm.605-.027h-.056V.993h.418v.21h-.108a.09.09 0 0 0-.014-.038c-.021-.035-.064-.067-.1-.067-.044 0-.06.002-.1.034a.135.135 0 0 0-.04.07zm-.056-.47h.167c.011 0 .14.136.159.154.014.015.043.04.053.055h-.379v-.21zM.34.575A.263.263 0 0 1 .102.424.263.263 0 0 1 .23.076a.274.274 0 0 1 .218 0 .252.252 0 0 1 .146.18.257.257 0 0 1-.196.312.37.37 0 0 1-.058.007zM.026.297c0 .086.013.128.058.197L.1.514a.31.31 0 0 0 .42.055L.54.553C.562.535.56.54.578.516A.306.306 0 0 0 .579.113C.561.092.565.094.542.076.534.069.532.066.522.059a.314.314 0 0 0-.465.12.275.275 0 0 0-.03.118zm.288-.12v.17c0 .01.014.019.026.019h.104c.039 0 .03-.052.007-.052H.366V.183C.366.144.314.153.314.176zM0 .913C0 .925.003.94.026.94h.21c.036 0 .03-.052.006-.052H.02C.012.889 0 .9 0 .909v.005zm.105.099c0 .012.002.033.02.033h.117c.027 0 .024-.053 0-.053H.124c-.008 0-.02.012-.02.02zm.052.105c0 .04.02.032.078.032.038 0 .03-.052.007-.052-.031 0-.085-.008-.085.02z"/>
</svg>
